icons/svg/seamark_big/radar_reflector_additional_center_big.svg

<?xml version="1.0" encoding="UTF-8" standalone="no"?>
<svg
   xmlns:dc="http://purl.org/dc/elements/1.1/"
   xmlns:cc="http://creativecommons.org/ns#"
   xmlns:rdf="http://www.w3.org/1999/02/22-rdf-syntax-ns#"
   xmlns:svg="http://www.w3.org/2000/svg"
   xmlns="http://www.w3.org/2000/svg"
   xmlns:sodipodi="http://sodipodi.sourceforge.net/DTD/sodipodi-0.dtd"
   xmlns:inkscape="http://www.inkscape.org/namespaces/inkscape"
   width="1060"
   height="1060"
   id="svg2"
   version="1.1"
   inkscape:version="0.48.4 r9939"
   sodipodi:docname="radar_reflector_additional_center_big.svg">
  <defs
     id="defs13">
    <inkscape:path-effect
       effect="gears"
       id="path-effect3774"
       is_visible="true"
       teeth="6"
       phi="-1.2" />
    <inkscape:path-effect
       effect="bend_path"
       id="path-effect3772"
       is_visible="false"
       bendpath="m 95.790098,316.51174 c 144.429032,-206.42506 223.313032,-11.7428 339.548092,0"
       prop_scale="1.19"
       scale_y_rel="false"
       vertical="false"
       bendpath-nodetypes="cc" />
  </defs>
  <sodipodi:namedview
     pagecolor="#ffffff"
     bordercolor="#666666"
     borderopacity="1"
     objecttolerance="10"
     gridtolerance="10"
     guidetolerance="10"
     inkscape:pageopacity="0"
     inkscape:pageshadow="2"
     inkscape:window-width="1920"
     inkscape:window-height="1004"
     id="namedview11"
     showgrid="false"
     inkscape:zoom="0.57543862"
     inkscape:cx="980.00532"
     inkscape:cy="697.6504"
     inkscape:window-x="1680"
     inkscape:window-y="0"
     inkscape:window-maximized="1"
     inkscape:current-layer="svg2" />
  <metadata
     id="metadata2975">image/svg+xmlen<rdf:RDF>
  <cc:Work
     rdf:about="">
    <dc:format>image/svg+xml</dc:format>
    <dc:type
       rdf:resource="http://purl.org/dc/dcmitype/StillImage" />
    <dc:title />
  </cc:Work>
</rdf:RDF>
</metadata>
  <path
     style="font-size:medium;font-style:normal;font-variant:normal;font-weight:normal;font-stretch:normal;text-indent:0;text-align:start;text-decoration:none;line-height:normal;letter-spacing:normal;word-spacing:normal;text-transform:none;direction:ltr;block-progression:tb;writing-mode:lr-tb;text-anchor:start;baseline-shift:baseline;color:#000000;fill:#616161;fill-opacity:1;stroke:none;stroke-width:30;marker:none;visibility:visible;display:inline;overflow:visible;enable-background:accumulate;font-family:Sans;-inkscape-font-specification:Sans"
     d="M 718.5625,128.3598 668.75,229.32855 c 9.17747,4.06001 18.11186,8.54949 26.84375,13.375 L 745.3125,141.9223 c -2.6338,-19.11732 -13.46887,-19.19513 -26.75,-13.5625 z"
     id="path3868"
     inkscape:connector-curvature="0"
     sodipodi:nodetypes="ccccc" />
  <path
     style="font-size:medium;font-style:normal;font-variant:normal;font-weight:normal;font-stretch:normal;text-indent:0;text-align:start;text-decoration:none;line-height:normal;letter-spacing:normal;word-spacing:normal;text-transform:none;direction:ltr;block-progression:tb;writing-mode:lr-tb;text-anchor:start;baseline-shift:baseline;color:#000000;fill:#616161;fill-opacity:1;stroke:none;stroke-width:30;marker:none;visibility:visible;display:inline;overflow:visible;enable-background:accumulate;font-family:Sans;-inkscape-font-specification:Sans"
     d="m 961.125,399.39105 c 8.55305,-12.19492 3.42556,-25.73691 -10.03125,-27.40625 l -105.0625,38.71875 c 3.82036,9.19192 10.28125,28.15625 10.28125,28.15625 0,0 27.29522,-10.05713 104.8125,-39.46875 z"
     id="path3870"
     inkscape:connector-curvature="0"
     sodipodi:nodetypes="ccccc" />
  <path
     style="font-size:medium;font-style:normal;font-variant:normal;font-weight:normal;font-stretch:normal;text-indent:0;text-align:start;text-decoration:none;line-height:normal;letter-spacing:normal;word-spacing:normal;text-transform:none;direction:ltr;block-progression:tb;writing-mode:lr-tb;text-anchor:start;baseline-shift:baseline;color:#000000;fill:#616161;fill-opacity:1;stroke:none;stroke-width:30;marker:none;visibility:visible;display:inline;overflow:visible;enable-background:accumulate;font-family:Sans;-inkscape-font-specification:Sans"
     d="m 816.03125,189.39105 -73.1875,84.78125 c 7.83882,6.22488 15.39898,12.80967 22.65625,19.6875 l 73.21875,-84.84375 c 0.1912,-15.77464 -7.37807,-22.30117 -22.6875,-19.625 z"
     id="path3870-3"
     inkscape:connector-curvature="0"
     sodipodi:nodetypes="ccccc" />
  <path
     style="font-size:medium;font-style:normal;font-variant:normal;font-weight:normal;font-stretch:normal;text-indent:0;text-align:start;text-decoration:none;line-height:normal;letter-spacing:normal;word-spacing:normal;text-transform:none;direction:ltr;block-progression:tb;writing-mode:lr-tb;text-anchor:start;baseline-shift:baseline;color:#000000;fill:#616161;fill-opacity:1;stroke:none;stroke-width:30;marker:none;visibility:visible;display:inline;overflow:visible;enable-background:accumulate;font-family:Sans;-inkscape-font-specification:Sans"
     d="m 895.78125,272.9223 -92.21875,63.59375 c 6.00697,7.97613 11.66732,16.22131 16.96875,24.71875 l 92.25,-63.59375 c 5.9268,-20.89433 -5.43736,-22.87208 -17,-24.71875 z"
     id="path3870-2"
     inkscape:connector-curvature="0"
     sodipodi:nodetypes="ccccc" />
  <path
     style="font-size:medium;font-style:normal;font-variant:normal;font-weight:normal;font-stretch:normal;text-indent:0;text-align:start;text-decoration:none;line-height:normal;letter-spacing:normal;word-spacing:normal;text-transform:none;direction:ltr;block-progression:tb;writing-mode:lr-tb;text-anchor:start;baseline-shift:baseline;color:#000000;fill:#292929;fill-opacity:1;stroke:none;stroke-width:30;marker:none;visibility:visible;display:inline;overflow:visible;enable-background:accumulate;font-family:Sans;-inkscape-font-specification:Sans"
     d="m 668.75,229.32855 c 95.62003,46.10425 156.20082,114.58992 187.5625,209.53125 17.33357,-6.52722 13.32978,-5.01953 27.29522,-10.05713 C 851.56854,327.78868 777.19801,246.22664 681.4375,203.5473 c -5.2458,10.69711 -8.63165,16.34933 -12.6875,25.78125 z"
     id="path3848"
     inkscape:connector-curvature="0"
     sodipodi:nodetypes="ccccc" />
</svg>

<svg width="1060" height="1060" viewBox="0 0 1060 1060" fill="none" xmlns="http://www.w3.org/2000/svg">
<path d="M718.562 128.36L668.75 229.329C677.927 233.389 686.862 237.878 695.594 242.704L745.312 141.922C742.679 122.805 731.844 122.727 718.562 128.36Z" fill="#616161"/>
<path d="M961.125 399.391C969.678 387.196 964.551 373.654 951.094 371.985L846.031 410.704C849.852 419.896 856.312 438.86 856.312 438.86C856.312 438.86 883.608 428.803 961.125 399.391Z" fill="#616161"/>
<path d="M816.031 189.391L742.844 274.172C750.683 280.397 758.243 286.982 765.5 293.86L838.719 209.016C838.91 193.242 831.341 186.715 816.031 189.391Z" fill="#616161"/>
<path d="M895.781 272.922L803.562 336.516C809.569 344.492 815.23 352.737 820.531 361.235L912.781 297.641C918.708 276.747 907.344 274.769 895.781 272.922Z" fill="#616161"/>
<path d="M668.75 229.329C764.37 275.433 824.951 343.919 856.312 438.86C873.646 432.333 869.642 433.84 883.608 428.803C851.569 327.789 777.198 246.227 681.438 203.547C676.192 214.244 672.806 219.897 668.75 229.329Z" fill="#292929"/>
</svg>
